svg/black/rdd.svg

<svg xmlns="http://www.w3.org/2000/svg" width="32" height="32" viewBox="0 0 32 32">
  <g fill-rule="evenodd">
    <path d="M18.8861262,7.09304213 C17.7858783,6.6990536 16.5989933,6.48425787 15.3614336,6.48425787 C9.63897185,6.48425787 5,11.0768632 5,16.7421289 C5,22.4073947 9.63897185,27 15.3614336,27 C21.0838954,27 25.7228672,22.4073947 25.7228672,16.7421289 C25.7228672,15.403914 25.4640263,14.1255504 24.9932059,12.953431 C26.1957607,12.1838822 26.991893,10.8447191 26.991893,9.32149925 C26.991893,6.93503248 25.0373246,5 22.6267643,5 C21.0396424,5 19.650191,5.83882778 18.8861262,7.09304213 Z M18.2957497,8.77867606 C18.2732353,8.9564858 18.2616355,9.13765296 18.2616355,9.32149925 C18.261689,9.54770937 18.2795604,9.77356927 18.3150864,9.9970251 C17.9452058,9.7815527 17.5568179,9.58984487 17.1490863,9.42297851 L17.3869662,8.36750625 C17.7018846,8.49747025 18.0047114,8.63458152 18.2957497,8.77867606 Z M23.2255789,13.6025535 C23.3095867,13.7768409 23.3889535,13.95394 23.463786,14.1337931 L22.5330338,14.7808196 C22.3269883,14.3611306 22.1068061,13.9595788 21.871673,13.5772131 C22.1211694,13.6206242 22.3739963,13.6425616 22.6273195,13.6427786 C22.8302674,13.6427971 23.0299857,13.6290935 23.2255789,13.6025535 Z M16,32 C7.163444,32 0,24.836556 0,16 C0,7.163444 7.163444,0 16,0 C24.836556,0 32,7.163444 32,16 C32,24.836556 24.836556,32 16,32 Z"/>
    <path d="M18.8861262,7.09304213 C18.5791102,7.59700956 18.3730684,8.16804476 18.2957497,8.77867606 C18.0047114,8.63458152 17.7018846,8.49747025 17.3869662,8.36750625 L17.1490863,9.42297851 C17.5568179,9.58984487 17.9452058,9.7815527 18.3150864,9.9970251 C18.3152599,9.99811674 18.3154339,9.99920832 18.3156083,10.0002999 C19.7687633,10.8468766 20.9365068,12.0609995 21.869369,13.5768116 C21.870137,13.5769456 21.8709049,13.5770795 21.871673,13.5772131 C22.1068061,13.9595788 22.3269883,14.3611306 22.5330338,14.7808196 L23.463786,14.1337931 C23.3889535,13.95394 23.3095867,13.7768409 23.2255789,13.6025535 C23.8702918,13.5150724 24.4701878,13.2881251 24.9932059,12.953431 C25.4640263,14.1255504 25.7228672,15.403914 25.7228672,16.7421289 C25.7228672,22.4073947 21.0838954,27 15.3614336,27 C9.63897185,27 5,22.4073947 5,16.7421289 C5,11.0768632 9.63897185,6.48425787 15.3614336,6.48425787 C16.5989933,6.48425787 17.7858783,6.6990536 18.8861262,7.09304213 Z" opacity=".6"/>
  </g>
</svg>

<svg xmlns="http://www.w3.org/2000/svg" width="32" height="32"><g fill-rule="evenodd"><path d="M18.886 7.093a10.436 10.436 0 0 0-3.525-.609C9.64 6.484 5 11.077 5 16.742 5 22.407 9.639 27 15.361 27c5.723 0 10.362-4.593 10.362-10.258a10.14 10.14 0 0 0-.73-3.789 4.308 4.308 0 0 0 1.999-3.632C26.992 6.935 25.037 5 22.627 5a4.372 4.372 0 0 0-3.74 2.093zm-.59 1.686a4.32 4.32 0 0 0 .02 1.218 9.344 9.344 0 0 0-1.167-.574l.238-1.055c.315.13.618.267.909.41zm4.93 4.824c.084.174.163.35.238.53l-.931.648a14.47 14.47 0 0 0-.661-1.204 4.43 4.43 0 0 0 1.354.026zM16 32C7.163 32 0 24.837 0 16S7.163 0 16 0s16 7.163 16 16-7.163 16-16 16z"/><path d="M18.886 7.093a4.266 4.266 0 0 0-.59 1.686 14.6 14.6 0 0 0-.909-.411l-.238 1.055c.408.167.796.359 1.166.574V10c1.454.847 2.622 2.061 3.554 3.577h.003c.235.383.455.784.661 1.204l.93-.647c-.074-.18-.153-.357-.237-.531a4.364 4.364 0 0 0 1.767-.65c.471 1.173.73 2.45.73 3.79C25.723 22.406 21.083 27 15.36 27S5 22.407 5 16.742C5 11.077 9.639 6.484 15.361 6.484c1.238 0 2.425.215 3.525.609z" opacity=".6"/></g></svg>
